ct7.net/plugins/perfmatters/img/youtube.svg

<svg viewBox="0 0 24 24" xmlns="http://www.w3.org/2000/svg"><path fill="#fff" d="M9.609 15.601V8.408l6.264 3.602z"/><path fill="red" fill-opacity=".8" d="M23.495 6.205a3.01 3.01 0 0 0-2.088-2.088c-1.87-.501-9.396-.501-9.396-.501s-7.507-.01-9.396.501A3.01 3.01 0 0 0 .527 6.205a31.3 31.3 0 0 0-.522 5.805c-.006 1.94.169 3.876.522 5.783a3.01 3.01 0 0 0 2.088 2.088c1.868.502 9.396.502 9.396.502s7.506 0 9.396-.502a3.01 3.01 0 0 0 2.088-2.088c.346-1.908.513-3.844.5-5.783a31.3 31.3 0 0 0-.5-5.805M9.609 15.601V8.408l6.264 3.602z"/></svg>

<svg viewBox="0 0 24 24" xmlns="http://www.w3.org/2000/svg"><g><path fill="#ffffff" d="M9.609 15.601V8.408L15.873 12.01 9.609 15.601z" /><path fill="#FF0000" fill-opacity="0.8" d="M23.495 6.205C23.213 5.193 22.419 4.399 21.407 4.117 19.537 3.616 12.011 3.616 12.011 3.616 12.011 3.616 4.504 3.606 2.615 4.117 1.603 4.399.809 5.193.527 6.205.173 8.12-.002 10.063.005 12.01-.001 13.95.174 15.886.527 17.793.809 18.805 1.603 19.599 2.615 19.881 4.483 20.383 12.011 20.383 12.011 20.383c0 0 7.506.0 9.396-.5019999999999989C22.419 19.599 23.213 18.805 23.495 17.793 23.841 15.885 24.008 13.949 23.995 12.01 24.009 10.064 23.842 8.12 23.495 6.205zM9.609 15.601V8.408L15.873 12.01 9.609 15.601z" /></g></svg>
